icons/karma.svg

<svg xmlns="http://www.w3.org/2000/svg" viewBox="0 0 28 21.51"><g data-name="Calque 2"><g data-name="Calque 1"><path d="M16.91 15.1l4.3 6.41H28l-7.69-11.37-3.39 5m-13.69 3.4l3.15-3 5 5.93L8.17 9.61l-2.72 4.48-2.22 4.45" fill="#429f87"/><path d="M3.23 18.54l4.94-8.93L5 12.57 0 6.63l3.23 11.9M27.35 0h-6.79l-4.15 6.14V0h-6.24v6.37l3.32 12.24.77 2.9h2.14v-5.38L27.35 0" fill="#56c5a8"/></g></g></svg>

<svg xmlns="http://www.w3.org/2000/svg" viewBox="0 0 28 21.51"><defs><style>.cls-1{fill:#429f87;}.cls-2{fill:#56c5a8;}</style></defs><title>karma</title><g id="Calque_2" data-name="Calque 2"><g id="Calque_1-2" data-name="Calque 1"><path class="cls-1" d="M16.91,15.1l4.3,6.41H28L20.31,10.14l-3.39,5"/><path class="cls-1" d="M3.23,18.54l3.15-3,5,5.93L8.17,9.61,5.45,14.09,3.23,18.54"/><path class="cls-2" d="M3.23,18.54,8.17,9.61,5,12.57,0,6.63l3.23,11.9"/><path class="cls-2" d="M27.35,0H20.56L16.41,6.14V0H10.17V6.37l3.32,12.24.77,2.9H16.4V16.13L27.35,0"/></g></g></svg>
